X:1
T:Title
%%score { ( 1 3 ) | ( 2 4 ) }
L:1/8
M:3/4
K:A
V:1 treble nm="Grand Piano"
V:3 treble 
V:2 bass 
V:4 bass 
V:1
 z2 z[Q:1/4=100] [CA] [EA]A | A3 B AF | E3 [EA] [DG][CA] | B4 c2 |[M:3/8] B3 | [^Ec][Ec][B,EB] | %6
[M:3/4] [CFA]3 [DFB] [DFA][A,DF] | [A,CE]3 [CEA] [B,EG][A,EA] | [DFB]4 [DEG]2 | %9
[M:9/16] [CEA]4- [CEA]/ |[M:4/4] z2 z A- A4 | z2 z d- d4- | d z z2 z4 | z .A3 z4 | z8 | z8 | z8 | %17
 z8 | [CE][EA][EGd][EAc]- [EAc]3 [EGB]- | [EGB]3 [Ae]- [Ae]4 | [Ed][Ec][FB][CEA]- [CEA]3 [DEG]- | %21
[M:5/8] [DEG]3 [CEA]2- | [CEA]3 z2 |] %23
V:2
 z2 z [A,,E,] [C,A,][E,CE] | [A,CE]3 [A,DE] [A,CE][A,D] | [A,C]3 [C,A,] [B,,E,][A,,A,] | %3
 [E,G,E]4 [A,E]2 |[M:3/8] [E,G,E]3 | [C,G,][C,A,]C, |[M:3/4] F,3 D, D,D, | A,,3 A,, B,,C, | %8
 D,4 E,2 |[M:9/16] A,,4- A,,/ |[M:4/4][K:treble] z2 z ^C- C4[K:bass] | %11
 z2[K:treble] z[K:bass] F- F4- | F z z2 z4 | z C z2 z4 | z8 | z8 | z8 | z8 | A,,C,E,A,- A,3 E,- | %19
 E, D,2 [C,A,]- [C,A,]4 | z2 .A,2 z4 |[M:5/8] z5 | z5 |] %23
V:3
 x6 | x6 | x6 | x6 |[M:3/8] x3 | x3 |[M:3/4] x6 | x6 | x6 |[M:9/16] x9/2 |[M:4/4] z F .G2 EEEE | %11
 AB .c2 A,A,A,A,- | A, z z c- c3 B- | B z ^D[Ge]- [Ge]4- | [Ge] d2 c- c2 cc/c/- | %15
 c/c/ c2 c- c B3- | B z z [DGB]- [DGB]2 [DGB][DGB]/[DGB]/- | %17
 [DGB]/[DGB]/ [DFB]2 [DEB]- [DEB] [CEA]3 | x8 | x8 | x8 |[M:5/8] x5 | x5 |] %23
V:4
 x6 | x6 | x6 | x6 |[M:3/8] x3 | x3 |[M:3/4] x6 | x6 | x6 |[M:9/16] x9/2 | %10
[M:4/4][K:treble] E^D .=C2 A,[K:bass]A,A,A, | z[K:treble] G .=G2[K:bass] D,D,D,D,- | %12
 D, z z [A,E]- [A,E]3 [G,B,E]- | [G,B,E] [F,F]2 [E,E]- [E,E]4- | %14
 [E,E] [G,B,E]2 [A,E]- [A,E]2 [A,E][A,E]/[A,E]/- | [A,E]/[A,E]/ [A,E]2 [E,A,E]- [E,A,E] [E,G,E]3- | %16
 [E,G,E] z z E,- E,2 E,E,/E,/- | E,/E,/ E,2 A,,- A,, A,,3 | x8 | x8 | %20
 [B,,G,][C,A,] D,/-[D,B,]/E,- E,3 E,- |[M:5/8] E,3 A,,2- | A,,3 z2 |] %23

